!!!COA: Josquin des Prez
!!!CDT: ~1450-1521/08/27
!!!OTL@@FRA: Pleine de dueil
!!!AGN: Chanson
!!!SCT: NJE 29.20
!!!SCA: New Josquin Edition 29.20
!!!voices: 5
**kern	**kern	**kern	**kern	**kern
*staff5	*staff4	*staff3	*staff2	*staff1
*Ivox	*Ivox	*Ivox	*Ivox	*Ivox
*I"Bassus	*I"Tenor	*I"Contratenor	*I"Quintus	*I"Superius
*I'B	*I'T	*I'Ct	*I'Q	*I'S
*clefF4	*clefF4	*clefGv2	*clefGv2	*clefG2
*k[]	*k[]	*k[]	*k[]	*k[]
*M2/1	*M2/1	*M2/1	*M2/1	*M2/1
*met(C|)	*met(C|)	*met(C|)	*met(C|)	*met(C|)
=1-	=1-	=1-	=1-	=1-
!	!	!	!LO:TX:Z=10:t=Canon at the upper fifth	!
0r	1A	1r	0r	0r
.	1A	1A	.	.
=2	=2	=2	=2	=2
1r	1A	1A	1A	0r
1AA	1c	1A	1A	.
=3	=3	=3	=3	=3
1AA	1r	0c	1A	1e
1AA	1E	.	1c	1e
=4	=4	=4	=4	=4
0C	1E	1r	1r	1e
.	1E	1E	1c	1g
=5	=5	=5	=5	=5
1C	0G	1E	1.c	1r
[1C	.	1E	.	1g
.	.	.	2c\	.
=6	=6	=6	=6	=6
2C/]	1r	1G	2G/	1.g
2C/	.	.	2G/	.
1GG	2r	1r	[1B-	.
.	2G\	.	.	2g/
=7	=7	=7	=7	=7
1GG	2G\	1r	1B-]	2d/
.	2G\	.	.	2d/
[1D	1F	2r	1A	[1f
.	.	2d\	.	.
=8	=8	=8	=8	=8
1D]	1D	2d\	0r	1f]
.	.	2d\	.	.
1AA	[1A	2c\	.	1e
.	.	2A/	.	.
=9	=9	=9	=9	=9
2r	1A]	0e	0r	0r
2AA/	.	.	.	.
2C/	2E\	.	.	.
2C/	2G\	.	.	.
=10	=10	=10	=10	=10
2GG/	2G\	1d	0r	0r
2GG/	2G\	.	.	.
[1D	1F	2r	.	.
.	.	2d\	.	.
=11	=11	=11	=11	=11
1D]	1D	2d\	0r	0r
.	.	2d\	.	.
1AA	[1A	2c\	.	.
.	.	2A/	.	.
=12	=12	=12	=12	=12
1r	1A]	1c	1e	0r
1E	1E	1B	1e	.
=13	=13	=13	=13	=13
1E	1r	0r	1e	1b
1E	1B	.	1g	1b
=14	=14	=14	=14	=14
0G	1B	0r	1r	1b
.	1B	.	1g	1dd
=15	=15	=15	=15	=15
1G	0d	1B	1.g	1r
[1G	.	1B	.	1dd
.	.	.	2g\	.
=16	=16	=16	=16	=16
2G\]	1r	1B	2d\	1.dd
2G\	.	.	2d\	.
1F	2r	1d	[1f	.
.	2d\	.	.	2dd\
=17	=17	=17	=17	=17
1D	2d\	2r	1f]	2a/
.	2d\	2d\	.	2a/
[1A	1c	2e\	1e	[1cc
.	.	2A/	.	.
=18	=18	=18	=18	=18
1A]	1A	2e\	0r	1cc]
.	.	2f\	.	.
1E	[1e	[1g	.	1b
=19	=19	=19	=19	=19
2r	1e]	1g]	0r	0r
2E\	.	.	.	.
2G\	2B\	1d	.	.
2G\	2d\	.	.	.
=20	=20	=20	=20	=20
2D\	2d\	2r	0r	0r
2D\	2d\	2d\	.	.
[1A	1c	2e\	.	.
.	.	2A/	.	.
=21	=21	=21	=21	=21
1A]	1A	2e\	0r	0r
.	.	2f\	.	.
1E	[1e	[1g	.	.
=22	=22	=22	=22	=22
1r	1e]	1g]	1g	0r
1G	1B	1d	1g	.
=23	=23	=23	=23	=23
1G	1r	0r	1g	1dd
1G	2r	.	1d	1dd
.	[2d\	.	.	.
=24	=24	=24	=24	=24
1D	2d\]	1.f	0r	1dd
.	2d\	.	.	.
2D\	1d	.	.	1a
2D\	.	2f\	.	.
=25	=25	=25	=25	=25
1D	1A	1f	2r	0r
.	.	.	2d\	.
1AA	2r	1e	2c\	.
.	2A\	.	2c\	.
=26	=26	=26	=26	=26
2r	2F\	2r	1d	2r
2D\	2D\	2f\	.	2a/
2GG/	1G	2g\	1B	2g/
2GG/	.	2d\	.	2g/
=27	=27	=27	=27	=27
1D	1F	2d\	0A	1a
.	.	1f	.	.
1D	1D	.	.	1f
.	.	4e\	.	.
.	.	4d\	.	.
=28	=28	=28	=28	=28
0AA	1r	0c	0r	0e
.	1A	.	.	.
=29	=29	=29	=29	=29
1.F	1.A	2r	0r	0r
.	.	2c\	.	.
.	.	2c\	.	.
2E\	2G\	2c\	.	.
=30	=30	=30	=30	=30
2D\	2F\	2B\	0r	0r
2C/	2E\	2.A/	.	.
1BB	1D	.	.	.
.	.	4G#i/	.	.
.	.	4G#i/	.	.
.	.	4F#i/	.	.
=31	=31	=31	=31	=31
0AA	0E	0A	1r	0r
.	.	.	1c	.
=32	=32	=32	=32	=32
1C	0r	0r	1c	1r
1C	.	.	1c	1g
=33	=33	=33	=33	=33
1C	1r	1r	1G	1g
1GG	1G	1B-i	1r	1g
=34	=34	=34	=34	=34
0r	1G	1B-i	1r	1d
.	1G	1B-i	2r	1r
.	.	.	2G/	.
=35	=35	=35	=35	=35
2r	0D	2A/	1A	1r
2D\	.	2F/	.	.
2D\	.	2F/	1B	2r
2D\	.	2F/	.	2d/
=36	=36	=36	=36	=36
1C	0r	2G/	1c	1e
.	.	1A	.	.
1D	.	.	1A	1f
.	.	2D/	.	.
=37	=37	=37	=37	=37
2GG/	2r	2r	0G	1g
2GG/	2B-\	2d\	.	.
2C/	2c\	2c\	.	1e
2C/	2G\	2c\	.	.
=38	=38	=38	=38	=38
1GG	1B-i	4d\	0r	0d
.	.	4G/	.	.
.	.	2.g\	.	.
1D	1A	.	.	.
.	.	4f#i\	.	.
.	.	4f#i\	.	.
.	.	4e\	.	.
=39	=39	=39	=39	=39
2GG/	2G\	2g\	0r	0r
2G\	2B-i\	2d\	.	.
2C/	2c\	2e\	.	.
2C/	2G\	2e\	.	.
=40	=40	=40	=40	=40
1G	1B-i	4d\	0r	0r
.	.	4G/	.	.
.	.	2.g\	.	.
1D	1A	.	.	.
.	.	4f#i\	.	.
.	.	4f#i\	.	.
.	.	4e\	.	.
=41	=41	=41	=41	=41
0GG	0G	1g	1.B-	0r
.	.	[1d	.	.
.	.	.	2B-i\	.
=42	=42	=42	=42	=42
1.D	1r	2d\]	1B-i	1.f
.	.	2d\	.	.
.	2r	1d	1A	.
2D\	2D\	.	.	2f/
=43	=43	=43	=43	=43
1D	2.F\	1G	0r	1f
.	4G\	.	.	.
1AA	1A	2c\	.	1e
.	.	2c\	.	.
=44	=44	=44	=44	=44
2C/	1E	1c	2r	0r
2C/	.	.	2c\	.
1C	2r	1G	2c\	.
.	[2G\	.	2c\	.
=45	=45	=45	=45	=45
2GG/	2G\]	1r	2B-i\	2r
2C/	2G\	.	2G/	2g/
2BB-i/	1G	[1d	[1B-i	2g/
2GG/	.	.	.	2g/
=46	=46	=46	=46	=46
2D\	2D\	2d\]	1B-]	2f/
2GG/	2G\	2d\	.	2d/
[1D	2F\	1d	1A	[1f
.	2D\	.	.	.
=47	=47	=47	=47	=47
1D]	2F\	1A	2r	1f]
.	2D\	.	2d\	.
1AA	1A	1r	2c\	1e
.	.	.	2c\	.
=48	=48	=48	=48	=48
2r	1D	2r	2d\	2r
2F\	.	2d\	2A/	2a/
2G\	1r	2d\	1B-i	2g/
2GG/	.	2d\	.	2g/
=49	=49	=49	=49	=49
2D\	1r	2f\	[0Al	2a/
2C/	.	2e\	.	2e/
1D	2r	1d	.	1f
.	2d\	.	.	.
=50	=50	=50	=50	=50
[0AAl	2e\	2c\	0A_	[0el
.	2c\	2A/	.	.
.	2A\	2c\	.	.
.	[2c\	2A/	.	.
=51	=51	=51	=51	=51
0AA_	4c\]	2c\	0A_	0e_
.	4B\	.	.	.
.	1A	2c\	.	.
.	.	2.A/	.	.
.	4G\	.	.	.
.	4F\	4B\	.	.
=52	=52	=52	=52	=52
0AA]	0El	0cl	0A]	0e]
==	==	==	==	==
*-	*-	*-	*-	*-
!!!RDF**kern: l=long note in original notation
!!!RDF**kern: i=editorial accidental
!!!RDF**kern: V=start of tuplet marker
!!!RDF**kern: Z=end of tuplet marker
!!!ENC: Will Watson 30/10/2011
!!!END: 2011/10/30/
!!!EED: Jesse Rodin
!!!EEV: 2011/12/01/
!!attribution-level@Jos: 3 (tricky)
!!!ONB: Translated from MusicXML and edited on 2011/12/01/ by Craig Sapp
!!muse2ps:  C^@{COA}?\n@{SCT}^v90,90,90,90,90,130Q16
